X:1
T:Title
%%score { 1 | ( 2 3 ) }
L:1/8
M:4/4
K:Ab
V:1 treble nm="Grand Piano"
V:2 bass 
V:3 bass 
V:1
 z4 z2[Q:1/4=100] [CE]2 | [Ec]3 [DB] [CA][EG]FA | E6 c2 | [Gd]3 c BAGA | [GB]6 E2 | %5
 e3 [Ad] [Ac][EA][DF][FA] | [FA]2 B2 A2 F2 | E>E E2- EEFG | [CA]6 c2 | e3 f [Ae][Ad] [Ac]>[GB] | %10
 [EAc]6 [CEA]2 | [EAc]3 [FAd] [EAc][DEB] [CEA]>[B,EG] | [CEA]6 [CE]2 | %13
 [CA]3 [DB] [Ec][CE][DF][FA] | [FA]2 B2 A2 F2 | E>A [Ac]2- [Ac][Ae][Gd][DGB] |[M:3/4] [CA]6 |] %17
V:2
 z4 z2 [A,,A,]2 | [A,,A,]3 [A,,A,] [A,,A,][C,A,][D,A,D][F,A,D] | [A,C]6 [A,E]2 | %3
 [E,B,]3 [E,A,E] [E,G,E][E,CE][E,B,E][E,CE] | [E,D]6[K:treble] [G,D]2 | %5
 [A,CA]3[K:bass] [A,,B,] [A,,A,][C,A,][D,A,][D,D] | z2[K:treble] G2 F2[K:bass] [D,A,D]2 | %7
 [E,A,C]>[E,A,C] [E,A,C]2- [E,A,C][E,G,B,][E,A,C][E,B,D] | [A,,A,]6[K:treble] [A,E]2 | %9
 [A,CA]3 [A,DA][K:bass] [E,C][E,E] [E,E]>[E,E] | A,6 A,,2 | A,,3 A,, E,E, E,>E, | A,,6 A,,2 | %13
 [A,,A,]3 [A,,A,] [A,,A,][A,,A,][D,A,][E,D] | z2[K:treble] G2 F2[K:bass] [D,A,D]2 | %15
 [E,A,C]>[E,CE] [E,E]2- [E,E][E,C][E,B,]E, |[M:3/4] A,,6 |] %17
V:3
 x8 | x8 | x8 | x8 | x6[K:treble] x2 | x3[K:bass] x5 | [D,D]6[K:treble][K:bass] z2 | x8 | %8
 x6[K:treble] x2 | x4[K:bass] x4 | x8 | x8 | x8 | x8 | [D,D]6[K:treble][K:bass] z2 | x8 | %16
[M:3/4] x6 |] %17

